projects/js-packages/social-logos/src/svg/stackoverflow.svg

<svg enable-background="new 0 0 24 24" viewBox="0 0 24 24" xmlns="http://www.w3.org/2000/svg"><path d="m18.18 20.103v-5.323h1.767v7.09h-15.947v-7.09h1.767v5.323z"/><path d="m7.717 14.275 8.673 1.813.367-1.744-8.673-1.813zm1.147-4.13 8.031 3.74.734-1.606-8.031-3.763s-.734 1.629-.734 1.629zm2.226-3.946 6.815 5.667 1.124-1.354-6.815-5.667s-1.124 1.354-1.124 1.354zm4.405-4.199-1.423 1.055 5.277 7.113 1.423-1.055zm-7.962 16.314h8.857v-1.767h-8.857z"/></svg>

<?xml version="1.0" encoding="iso-8859-1"?>
<!-- Generator: Adobe Illustrator 23.0.4, SVG Export Plug-In . SVG Version: 6.00 Build 0)  -->
<svg version="1.1" xmlns="http://www.w3.org/2000/svg" xmlns:xlink="http://www.w3.org/1999/xlink" x="0px" y="0px"
	 viewBox="0 0 24 24" style="enable-background:new 0 0 24 24;" xml:space="preserve">
<g id="Artwork">
	<g id="Layer_1_1_">
	</g>
	<g id="Layer_1_2_">
	</g>
	<g>
		<path d="M18.18,20.103V14.78h1.767v7.09H4v-7.09h1.767v5.323H18.18z"/>
		<path d="M7.717,14.275l8.673,1.813l0.367-1.744l-8.673-1.813L7.717,14.275z M8.864,10.145l8.031,3.74l0.734-1.606L9.598,8.516
			C9.598,8.516,8.864,10.145,8.864,10.145z M11.09,6.199l6.815,5.667l1.124-1.354l-6.815-5.667
			C12.214,4.845,11.09,6.199,11.09,6.199z M15.495,2l-1.423,1.055l5.277,7.113l1.423-1.055L15.495,2z M7.533,18.314h8.857v-1.767
			H7.533V18.314z"/>
	</g>
</g>
<g id="Layer_1">
</g>
</svg>
